X:1
T:Kost ar c'hoat Bernard Loffet
Z:Roger Ngaret (94-95)
R:kostarchoat
C:Trad.
S:Bernard Loffet
A:Bretagne
M:4/4
L:1/8
K:Bb
"Gm"GA Bc dc d2 | "Eb"BG "F"AB c2 "Gm"d2 |
GA Bc dc d2 | "Eb"BB GG "F"F2 "Gm"G2 :|
"Bb"dd ff dc B2 | "F"cc "Eb"gg "F"f2 "Bb"d2 |
dd ff dc B2 | "F"cc dc BA "Gm"G2 |]
